X:259
T:Pete's Kettle
R: slipjig
M:9/8
L:1/8
C:Taz Tarry
S:Copyright B.Tarry 15th. September 1998
K:D
"D" d2e fed "G2" B2A|"D" def "Em" gfe "A7" c2A|"D" d2e fed "G" B2A|"A7" agf edc "D" d3:|!
"D" DEF FGA "A" ABc|"D" DEF FGA "A" E2D|"D" DEF "G" GAB "A" cde|"A" afe "A7" dce "D" d3:|!
"D" aff aff "A" afe|"D" aff "A" afe "D" dBA|"A" a3  aaa "D" aaa|"A" ABc ecA "D" d3:|

